X:136
T: Vater Noah (2-18), S. 43
N: K1110
O: Luxemburg
S: KINTZELE, Guillaume: An der Ucht, Bd. 2, Luxemburg 1927]
R: Trinklied]
M: 3/4
L: 1/16
K: D
A2 | D3E=F2G2A2d2 | A8z2
A2 | A3_BA2G2=F2E2 | D8z2
d2 | =c3dc2_B2A2G2 | =F8z2
d2 | =c3dc2_B2A2G2 | =F8z2
f2 | e3=fe2d2=c2B2 | A4z2
d2d2d2 | =c2G2A6A2 | D8z2
=f2 | e4=fed2=c2B2 | A4z2
d2d2d2 | =c2G2A6A2 | D8z2

@@@ Tune index: 8190
